assets/images/item_6339.svg

<?xml version="1.0" standalone="no"?><!DOCTYPE svg PUBLIC "-//W3C//DTD SVG 1.1//EN" "http://www.w3.org/Graphics/SVG/1.1/DTD/svg11.dtd"><svg xmlns="http://www.w3.org/2000/svg" version="1.1" width="68px" height="160.2px" viewBox="0 -12 68 160.2" style="top:-12px"><desc>1</desc><defs/><g id="Polygon9880"><path d="m6.1 80.9l14.6-3.7v-48H5.9s-.05-5.62 0-5.6c9.3-.6 19.6-2.7 29.7-6.3c-.05-.02 0 61.2 0 61.2l14.5 1.7v4.6h-44v-3.9z" stroke="none" fill="#000"/></g></svg>

<?xml version="1.0" standalone="no"?><!DOCTYPE svg PUBLIC "-//W3C//DTD SVG 1.1//EN" "http://www.w3.org/Graphics/SVG/1.1/DTD/svg11.dtd"><svg xmlns="http://www.w3.org/2000/svg" version="1.1" width="68px" height="160.2px" viewBox="0 -12 68 160.2" style="top:-12px">  <desc>1</desc>  <defs/>  <g id="Polygon9880">    <path d="M 6.1 80.9 L 20.7 77.2 L 20.7 29.2 L 5.9 29.2 C 5.9 29.2 5.85 23.58 5.9 23.6 C 15.2 23 25.5 20.9 35.6 17.3 C 35.55 17.28 35.6 78.5 35.6 78.5 L 50.1 80.2 L 50.1 84.8 L 6.1 84.8 L 6.1 80.9 Z " stroke="none" fill="#000"/>  </g></svg>
